X: 10181
T: The celebrated March in Alceste
C: Gluck
Q:
B: "Man of Feeling", Gaetano Brandi, ed. v.1 p.18-19
F: http://archive.org/details/manoffeelingorge00rugg
Z: 2012 John Chambers <jc:trillian.mit.edu>
M: 2/4
L: 1/8
K: G
%%graceslurs 0
% - - - - - - - - - - - - - - - - - - - - - - - - -
% Voice 1 has 4/8 staff/line formatting:
V: 1
[|\
G2{AGF}GA | F2(GB) | (A2{BAG})(AB) | c2B2 |\
d2{edc}(de) | c2{dcB}(cd) | B2(Gc) | (B2A)z |
G2(GA) | F2(GB) | A2{BAG}(AB) | c2B2 |\
d2{edc}(df) | e2{fed}(eg) | f2(e>d) | d2z2 |]
[| d2(d>e) | d2(cB) | c2(cd) | c2(Bd) |\
g2(ga) | (fe)(dc) | (Bd)(cB) | (B2A)z |
B2(BA) | G2G2 | c2(cB) | A2A2 |\
d2ed | dccB | dcBA | A2Bd |
g2ga | f2g2 | dcBA | A2Gz |]
% - - - - - - - - - - - - - - - - - - - - - - - - -
% Voice 2 preserves the staff/line breaks from the MS:
V: 2
[|\
d2e2 | (dc)B2 | E3F | (GA)G2 | A2B2 | E2F2 | G2EA | (G2F)z |
d2^c2 | (dc)B2 | E3F | GAG2 | A2F2 | B2G2 | d2^c2 | d2z2 |] [| F2^G2 |
B2(A^G) | A2F2 | A2(GA) | B2^c2 | A2A2 | (GB)(AG) | (G2F)z | G2(GF) | E2E2 | A2(AG) |
F2F2 | G2G2 | A2AG | BAGF | F2GA | B2^c2 | dc BG | BAGF | F2Gz |]
%
%%center -

% Continuation of previous page.

%%sep 2 1 500
%%sep 1 1 500

